packages/icons/src/default-dashboard.svg

<svg width="24" height="24" viewBox="0 0 24 24" fill="none" xmlns="http://www.w3.org/2000/svg">
<mask id="path-1-inside-1_502_4910" fill="white">
<path fill-rule="evenodd" clip-rule="evenodd" d="M4 3.5C3.72386 3.5 3.5 3.72386 3.5 4V11C3.5 11.2761 3.72386 11.5 4 11.5H9C9.27614 11.5 9.5 11.2761 9.5 11V4C9.5 3.72386 9.27614 3.5 9 3.5H4ZM4.5 10.5V4.5H8.5V10.5H4.5ZM4 13.5C3.72386 13.5 3.5 13.7239 3.5 14V20C3.5 20.2761 3.72386 20.5 4 20.5H13C13.2761 20.5 13.5 20.2761 13.5 20V14C13.5 13.7239 13.2761 13.5 13 13.5H4ZM4.5 19.5V14.5H12.5V19.5H4.5ZM11.5 4C11.5 3.72386 11.7239 3.5 12 3.5H20C20.2761 3.5 20.5 3.72386 20.5 4V11C20.5 11.2761 20.2761 11.5 20 11.5H12C11.7239 11.5 11.5 11.2761 11.5 11V4ZM12.5 4.5V10.5H19.5V4.5H12.5ZM16 13.5C15.8674 13.5 15.7402 13.5527 15.6464 13.6464C15.5527 13.7402 15.5 13.8674 15.5 14V20C15.5 20.2761 15.7239 20.5 16 20.5H20C20.2761 20.5 20.5 20.2761 20.5 20V14C20.5 13.7239 20.2761 13.5 20 13.5H16ZM16.5 19.5V14.5H19.5V19.5H16.5Z"/>
</mask>
<path d="M4.5 4.5V3.5C3.94772 3.5 3.5 3.94772 3.5 4.5H4.5ZM4.5 10.5H3.5C3.5 11.0523 3.94772 11.5 4.5 11.5V10.5ZM8.5 4.5H9.5C9.5 3.94772 9.05228 3.5 8.5 3.5V4.5ZM8.5 10.5V11.5C9.05228 11.5 9.5 11.0523 9.5 10.5H8.5ZM4.5 14.5V13.5C3.94772 13.5 3.5 13.9477 3.5 14.5H4.5ZM4.5 19.5H3.5C3.5 20.0523 3.94772 20.5 4.5 20.5V19.5ZM12.5 14.5H13.5C13.5 13.9477 13.0523 13.5 12.5 13.5V14.5ZM12.5 19.5V20.5C13.0523 20.5 13.5 20.0523 13.5 19.5H12.5ZM12.5 10.5H11.5C11.5 11.0523 11.9477 11.5 12.5 11.5V10.5ZM12.5 4.5V3.5C11.9477 3.5 11.5 3.94772 11.5 4.5H12.5ZM19.5 10.5V11.5C20.0523 11.5 20.5 11.0523 20.5 10.5H19.5ZM19.5 4.5H20.5C20.5 3.94772 20.0523 3.5 19.5 3.5V4.5ZM16.5 14.5V13.5C15.9477 13.5 15.5 13.9477 15.5 14.5H16.5ZM16.5 19.5H15.5C15.5 20.0523 15.9477 20.5 16.5 20.5V19.5ZM19.5 14.5H20.5C20.5 13.9477 20.0523 13.5 19.5 13.5V14.5ZM19.5 19.5V20.5C20.0523 20.5 20.5 20.0523 20.5 19.5H19.5ZM4.5 4C4.5 4.27614 4.27614 4.5 4 4.5V2.5C3.17157 2.5 2.5 3.17157 2.5 4H4.5ZM4.5 11V4H2.5V11H4.5ZM4 10.5C4.27614 10.5 4.5 10.7239 4.5 11H2.5C2.5 11.8284 3.17157 12.5 4 12.5V10.5ZM9 10.5H4V12.5H9V10.5ZM8.5 11C8.5 10.7239 8.72386 10.5 9 10.5V12.5C9.82843 12.5 10.5 11.8284 10.5 11H8.5ZM8.5 4V11H10.5V4H8.5ZM9 4.5C8.72386 4.5 8.5 4.27614 8.5 4H10.5C10.5 3.17157 9.82843 2.5 9 2.5V4.5ZM4 4.5H9V2.5H4V4.5ZM3.5 4.5V10.5H5.5V4.5H3.5ZM8.5 3.5H4.5V5.5H8.5V3.5ZM9.5 10.5V4.5H7.5V10.5H9.5ZM4.5 11.5H8.5V9.5H4.5V11.5ZM4.5 14C4.5 14.2761 4.27614 14.5 4 14.5V12.5C3.17157 12.5 2.5 13.1716 2.5 14H4.5ZM4.5 20V14H2.5V20H4.5ZM4 19.5C4.27614 19.5 4.5 19.7239 4.5 20H2.5C2.5 20.8284 3.17157 21.5 4 21.5V19.5ZM13 19.5H4V21.5H13V19.5ZM12.5 20C12.5 19.7239 12.7239 19.5 13 19.5V21.5C13.8284 21.5 14.5 20.8284 14.5 20H12.5ZM12.5 14V20H14.5V14H12.5ZM13 14.5C12.7239 14.5 12.5 14.2761 12.5 14H14.5C14.5 13.1716 13.8284 12.5 13 12.5V14.5ZM4 14.5H13V12.5H4V14.5ZM3.5 14.5V19.5H5.5V14.5H3.5ZM12.5 13.5H4.5V15.5H12.5V13.5ZM13.5 19.5V14.5H11.5V19.5H13.5ZM4.5 20.5H12.5V18.5H4.5V20.5ZM12 2.5C11.1716 2.5 10.5 3.17157 10.5 4H12.5C12.5 4.27614 12.2761 4.5 12 4.5V2.5ZM20 2.5H12V4.5H20V2.5ZM21.5 4C21.5 3.17157 20.8284 2.5 20 2.5V4.5C19.7239 4.5 19.5 4.27614 19.5 4H21.5ZM21.5 11V4H19.5V11H21.5ZM20 12.5C20.8284 12.5 21.5 11.8284 21.5 11H19.5C19.5 10.7239 19.7239 10.5 20 10.5V12.5ZM12 12.5H20V10.5H12V12.5ZM10.5 11C10.5 11.8284 11.1716 12.5 12 12.5V10.5C12.2761 10.5 12.5 10.7239 12.5 11H10.5ZM10.5 4V11H12.5V4H10.5ZM13.5 10.5V4.5H11.5V10.5H13.5ZM19.5 9.5H12.5V11.5H19.5V9.5ZM18.5 4.5V10.5H20.5V4.5H18.5ZM12.5 5.5H19.5V3.5H12.5V5.5ZM16.3536 14.3536C16.2598 14.4473 16.1326 14.5 16 14.5V12.5C15.6022 12.5 15.2206 12.658 14.9393 12.9393L16.3536 14.3536ZM16.5 14C16.5 14.1326 16.4473 14.2598 16.3536 14.3536L14.9393 12.9393C14.658 13.2206 14.5 13.6022 14.5 14H16.5ZM16.5 20V14H14.5V20H16.5ZM16 19.5C16.2761 19.5 16.5 19.7239 16.5 20H14.5C14.5 20.8284 15.1716 21.5 16 21.5V19.5ZM20 19.5H16V21.5H20V19.5ZM19.5 20C19.5 19.7239 19.7239 19.5 20 19.5V21.5C20.8284 21.5 21.5 20.8284 21.5 20H19.5ZM19.5 14V20H21.5V14H19.5ZM20 14.5C19.7239 14.5 19.5 14.2761 19.5 14H21.5C21.5 13.1716 20.8284 12.5 20 12.5V14.5ZM16 14.5H20V12.5H16V14.5ZM15.5 14.5V19.5H17.5V14.5H15.5ZM19.5 13.5H16.5V15.5H19.5V13.5ZM20.5 19.5V14.5H18.5V19.5H20.5ZM16.5 20.5H19.5V18.5H16.5V20.5Z" fill="#0278D5" mask="url(#path-1-inside-1_502_4910)"/>
</svg>

<svg width="24" height="24" fill="none" xmlns="http://www.w3.org/2000/svg"><mask id="a" fill="#fff"><path fill-rule="evenodd" clip-rule="evenodd" d="M4 3.5a.5.5 0 0 0-.5.5v7a.5.5 0 0 0 .5.5h5a.5.5 0 0 0 .5-.5V4a.5.5 0 0 0-.5-.5H4Zm.5 7v-6h4v6h-4Zm-.5 3a.5.5 0 0 0-.5.5v6a.5.5 0 0 0 .5.5h9a.5.5 0 0 0 .5-.5v-6a.5.5 0 0 0-.5-.5H4Zm.5 6v-5h8v5h-8Zm7-15.5a.5.5 0 0 1 .5-.5h8a.5.5 0 0 1 .5.5v7a.5.5 0 0 1-.5.5h-8a.5.5 0 0 1-.5-.5V4Zm1 .5v6h7v-6h-7Zm3.5 9a.5.5 0 0 0-.5.5v6a.5.5 0 0 0 .5.5h4a.5.5 0 0 0 .5-.5v-6a.5.5 0 0 0-.5-.5h-4Zm.5 6v-5h3v5h-3Z"/></mask><path d="M4.5 4.5v-1a1 1 0 0 0-1 1h1Zm0 6h-1a1 1 0 0 0 1 1v-1Zm4-6h1a1 1 0 0 0-1-1v1Zm0 6v1a1 1 0 0 0 1-1h-1Zm-4 4v-1a1 1 0 0 0-1 1h1Zm0 5h-1a1 1 0 0 0 1 1v-1Zm8-5h1a1 1 0 0 0-1-1v1Zm0 5v1a1 1 0 0 0 1-1h-1Zm0-9h-1a1 1 0 0 0 1 1v-1Zm0-6v-1a1 1 0 0 0-1 1h1Zm7 6v1a1 1 0 0 0 1-1h-1Zm0-6h1a1 1 0 0 0-1-1v1Zm-3 10v-1a1 1 0 0 0-1 1h1Zm0 5h-1a1 1 0 0 0 1 1v-1Zm3-5h1a1 1 0 0 0-1-1v1Zm0 5v1a1 1 0 0 0 1-1h-1ZM4.5 4a.5.5 0 0 1-.5.5v-2A1.5 1.5 0 0 0 2.5 4h2Zm0 7V4h-2v7h2Zm-.5-.5a.5.5 0 0 1 .5.5h-2A1.5 1.5 0 0 0 4 12.5v-2Zm5 0H4v2h5v-2Zm-.5.5a.5.5 0 0 1 .5-.5v2a1.5 1.5 0 0 0 1.5-1.5h-2Zm0-7v7h2V4h-2Zm.5.5a.5.5 0 0 1-.5-.5h2A1.5 1.5 0 0 0 9 2.5v2Zm-5 0h5v-2H4v2Zm-.5 0v6h2v-6h-2Zm5-1h-4v2h4v-2Zm1 7v-6h-2v6h2Zm-5 1h4v-2h-4v2Zm0 2.5a.5.5 0 0 1-.5.5v-2A1.5 1.5 0 0 0 2.5 14h2Zm0 6v-6h-2v6h2Zm-.5-.5a.5.5 0 0 1 .5.5h-2A1.5 1.5 0 0 0 4 21.5v-2Zm9 0H4v2h9v-2Zm-.5.5a.5.5 0 0 1 .5-.5v2a1.5 1.5 0 0 0 1.5-1.5h-2Zm0-6v6h2v-6h-2Zm.5.5a.5.5 0 0 1-.5-.5h2a1.5 1.5 0 0 0-1.5-1.5v2Zm-9 0h9v-2H4v2Zm-.5 0v5h2v-5h-2Zm9-1h-8v2h8v-2Zm1 6v-5h-2v5h2Zm-9 1h8v-2h-8v2Zm7.5-18A1.5 1.5 0 0 0 10.5 4h2a.5.5 0 0 1-.5.5v-2Zm8 0h-8v2h8v-2ZM21.5 4A1.5 1.5 0 0 0 20 2.5v2a.5.5 0 0 1-.5-.5h2Zm0 7V4h-2v7h2ZM20 12.5a1.5 1.5 0 0 0 1.5-1.5h-2a.5.5 0 0 1 .5-.5v2Zm-8 0h8v-2h-8v2ZM10.5 11a1.5 1.5 0 0 0 1.5 1.5v-2a.5.5 0 0 1 .5.5h-2Zm0-7v7h2V4h-2Zm3 6.5v-6h-2v6h2Zm6-1h-7v2h7v-2Zm-1-5v6h2v-6h-2Zm-6 1h7v-2h-7v2Zm3.854 8.854A.5.5 0 0 1 16 14.5v-2a1.5 1.5 0 0 0-1.06.44l1.414 1.414ZM16.5 14a.5.5 0 0 1-.146.354l-1.415-1.415A1.5 1.5 0 0 0 14.5 14h2Zm0 6v-6h-2v6h2Zm-.5-.5a.5.5 0 0 1 .5.5h-2a1.5 1.5 0 0 0 1.5 1.5v-2Zm4 0h-4v2h4v-2Zm-.5.5a.5.5 0 0 1 .5-.5v2a1.5 1.5 0 0 0 1.5-1.5h-2Zm0-6v6h2v-6h-2Zm.5.5a.5.5 0 0 1-.5-.5h2a1.5 1.5 0 0 0-1.5-1.5v2Zm-4 0h4v-2h-4v2Zm-.5 0v5h2v-5h-2Zm4-1h-3v2h3v-2Zm1 6v-5h-2v5h2Zm-4 1h3v-2h-3v2Z" fill="#0278D5" mask="url(#a)"/></svg>
